X:1
T:Nature Boy
C:x
Q:1/4=90
M:C
K:F
L:1/4
V:1 score=_B
A, |: A/F/ D3 | z z/ A,/ E/F/G/B/ | A/F/ D3 | z z/ A,/ E/F/G/B/ | 
A3/2 d/ ^c2 | A3/2 c/ =B2 | G3/2 B/ A3/2 D/ | E3 z/ A,/ |
A3 G | E3 A, | G3 F | D3 A, | F3 E | =B,3 C | ^C4 | z2 z3/2 A,/ :|
